X:1
T:60 Lessons for 2 Guitars, Op.168 - Joseph Küffner (1776 - 1856)
T:Leçon No.47
T:60 Lessons for 2 Guitars, Op.168 "à l'usage des commençants"
T:Joseph Küffner (1776 - 1856)
%%score { ( 1 2 ) ( 3 4 ) }
L:1/8
Q:1/4=120
M:3/4
K:A
V:1 treble-8 nm="Classical Guitar"
V:2 treble-8 
V:3 treble-8 nm="Guitare classique"
V:4 treble-8 
V:1
"_""^Ländler" z eaec'e | e'ec'eae | z ege d'2 | z eae c'2 | z eaec'e | e'ec'eae | z egd'bg | %7
 [ca]2 A,2 z2 ::"_" z egd' e2 | z eac' e2 | z BdgBd | z cea c'2 | z egd' e2 | z eac' e2 | %14
 z BdgBd | A,2 [cea]2 z2 :| %16
V:2
 A,4 z2 | x6 | E,4 z2 | A,4 z2 | A,4 z2 | x6 | E,4 z2 | x6 :: E,4 z2 | A,4 z2 | E,6 | A,6 | %12
 E,4 z2 | A,4 z2 | E,6 | x6 :| %16
V:3
"_" z2 [Ace]2 [Ace]2 | z2 [Ace]2 [Ace]2 | z2 [Gde]2 [Gde]2 | z2 [Ace]2 [Ace]2 | z2 [Ace]2 [Ace]2 | %5
 z2 [Ace]2 [Ace]2 | z2 [Gde]2 [Gde]2 | A,2 [Ace]2 z2 ::"_" [E,GB]7/2 [E,GB]/ [E,GB]2 | %9
 [Ac] x !>!e4 | [GB]2 [Be]2 [GB]2 | [Ac]2 [ce]2 [Ac]2 | [E,GB]7/2 [E,GB]/ [E,GB]2 | [Ac] x !>!e4 | %14
 [GB]2 [Be]2 [GB]2 | A,2 [Ace]2 z2 :| %16
V:4
 A,6 | A,6 | E,6 | A,6 | A,6 | A,6 | E,6 | x6 :: x6 | A, z c4 | E,6 | A,6 | x6 | A, z c4 | E,6 | %15
 x6 :| %16

